X:221
T: ES WOLLT EIN JAEGER JAGEN, DREI STUENDLEIN VOR DEM TAGEN
N: Z0220
O: Europa, Mitteleuropa, Deutschland, Pfalz
R: Soldaten -, Jaeger - Lied
M: 6/8
L: 1/16
K: G
D2 | G3AB2B4B2 | d4cBc4
B2 | B3AA2A2B2c2 | c4BAB4
GA | B2d2B2A2G2A2 | G4ged3e
d2 | B3dB2A2G2A2 | G6z4

